X:85
% %NRChange 2008-02-24
T: Vintervals
C: Michael Sommer 2004
R:Waltz
M: 3/4
Q: 1/4=150
L: 1/4
K: F
%P:A
[V:1]"F"Ffe | "Bb"d>ef | "C"c2B | "F"A3/F/ G/A/ | "Gm"B>cd | "F/a"cAF | "G7/h"FEF |"C7"G3 |
[V:2]F2A | B>cd | E2G | F2E/F/ | G>AB | AFC | =B,2D | E3 |
[V:1]"F"Ffe | "Bb"d>ef | "C"c2"A7/c#"B | "Dm"A3/F/ "/c"G/A/ | "Gm"B>cd | "C"efg | "F"f>f"(Bb/c)"f | "F"f2z :|
[V:2]F2A | B>cd | E2G | F>DE/F/ | G>AB | c2B | A>AB | A2z :|
%P:B
[V:1]"Dm"agf | "Am"e>fg | "Bb"d>ef | "F"c2A | "Gm"B>cd | "F/a"Acf | "G7"fef | "C7"g3 |
[V:2]fed | c>de | B2d | A2 F | G>AB | F2A | =B3 | B3 |
[V:1]"Fmaj7"agf | "F/a"e>fg | "Bb"d>ef | "F"c2A | "Gm"B>cd | "C7"efg | "F"f>f "(Bb/c)"f | "F"f2z :|
[V:2]{A}e2d | cAc | B2d | A2F | G>AB | c2B | A>AB | A2z :|

